src/assets/images/hero-shape.svg

<svg height="364" viewBox="0 0 372 364" width="372" xmlns="http://www.w3.org/2000/svg"><path d="m725.366831 277.244962c1.961456 32.382172-.442909 58.98268-9.908516 84.526455-10.465317 28.543925-29.409186 50.249454-55.907824 66.100441-21.867071 13.033035-45.493125 21.341139-70.802234 25.786703-25.752019 4.664199-51.339529 4.737077-77.002967-1.639757-21.284961-5.453712-40.456611-15.000743-58.12237-27.632948-27.093621-19.142192-50.737446-42.415025-69.992343-68.894102-12.528009-17.30855-22.487144-35.698125-27.118711-56.322629-4.55564-19.762112-2.720729-39.050517 3.935566-57.986678 6.580369-18.729673 16.767286-35.600954 28.801767-51.403357 18.602196-24.061921 39.988394-45.694571 64.905212-63.829073 17.77965-13.033034 36.938646-23.478896 58.742444-29.2727055 20.550997-5.368687 40.950139-4.7006378 61.425209.9717081 22.17078 6.0974684 41.962504 16.7862564 60.450809 29.9164624 21.259652 15.207231 39.950429 32.928757 55.338368 53.881212 15.090686 20.643089 25.560998 44.063736 30.750568 68.784784 2.075347 10.895277 3.467349 21.559773 4.505022 27.013484z" fill="#fedf5f" fill-rule="evenodd" transform="matrix(1 0 0 -1 -354 457)"/></svg>

<svg xmlns="http://www.w3.org/2000/svg" width="372" height="364" viewBox="0 0 372 364">
  <path fill="#FEDF5F" fill-rule="evenodd" d="M725.366831,277.244962 C727.328287,309.627134 724.923922,336.227642 715.458315,361.771417 C704.992998,390.315342 686.049129,412.020871 659.550491,427.871858 C637.68342,440.904893 614.057366,449.212997 588.748257,453.658561 C562.996238,458.32276 537.408728,458.395638 511.74529,452.018804 C490.460329,446.565092 471.288679,437.018061 453.62292,424.385856 C426.529299,405.243664 402.885474,381.970831 383.630577,355.491754 C371.102568,338.183204 361.143433,319.793629 356.511866,299.169125 C351.956226,279.407013 353.791137,260.118608 360.447432,241.182447 C367.027801,222.452774 377.214718,205.581493 389.249199,189.77909 C407.851395,165.717169 429.237593,144.084519 454.154411,125.950017 C471.934061,112.916983 491.093057,102.471121 512.896855,96.6773115 C533.447852,91.3086245 553.846994,91.9766737 574.322064,97.6490196 C596.492844,103.746488 616.284568,114.435276 634.772873,127.565482 C656.032525,142.772713 674.723302,160.494239 690.111241,181.446694 C705.201927,202.089783 715.672239,225.51043 720.861809,250.231478 C722.937156,261.126755 724.329158,271.791251 725.366831,277.244962 Z" transform="matrix(1 0 0 -1 -354 457)"/>
</svg>
